polaris-icons/icons/GaugeMajor.svg

<svg viewBox="0 0 20 20" xmlns="http://www.w3.org/2000/svg">
<path d="M4.5 11.5C4.5 8.46243 6.96243 6 10 6C10.6806 6 11.3324 6.12363 11.934 6.34967L12.3895 5.36869C12.4517 5.23463 12.5313 5.11409 12.6242 5.00851C11.8138 4.68058 10.928 4.5 10 4.5C6.13401 4.5 3 7.63401 3 11.5C3 12.7163 3.31087 13.8623 3.85807 14.8605C4.05718 15.2237 4.51304 15.3568 4.87626 15.1577C5.23947 14.9586 5.37251 14.5027 5.1734 14.1395C4.7443 13.3567 4.5 12.458 4.5 11.5Z" fill="#5C5F62"/>
<path d="M15.0843 6.68853L14.3893 8.18533C15.0865 9.10706 15.5 10.2552 15.5 11.5C15.5 12.458 15.2557 13.3567 14.8266 14.1395C14.6275 14.5027 14.7605 14.9586 15.1237 15.1577C15.487 15.3568 15.9428 15.2237 16.1419 14.8605C16.6891 13.8623 17 12.7163 17 11.5C17 9.6364 16.2717 7.94288 15.0843 6.68853Z" fill="#5C5F62"/>
<path fill-rule="evenodd" d="M10 16C11.1046 16 12 15.1046 12 14C12 13.4846 11.805 13.0147 11.4848 12.6601L14.4302 6.31601C14.6047 5.94032 14.4415 5.49435 14.0658 5.31992C13.6901 5.14549 13.2442 5.30865 13.0697 5.68435L10.1354 12.0045C10.0906 12.0015 10.0455 12 10 12C8.89543 12 8 12.8954 8 14C8 15.1046 8.89543 16 10 16ZM10 14.5C10.2761 14.5 10.5 14.2761 10.5 14C10.5 13.7239 10.2761 13.5 10 13.5C9.72386 13.5 9.5 13.7239 9.5 14C9.5 14.2761 9.72386 14.5 10 14.5Z" fill="#5C5F62"/>
</svg>

<svg viewBox="0 0 20 20" xmlns="http://www.w3.org/2000/svg"><path d="M4.5 11.5a5.5 5.5 0 0 1 7.434-5.15l.456-.981a1.5 1.5 0 0 1 .234-.36 7 7 0 0 0-8.766 9.852.75.75 0 0 0 1.315-.722 5.472 5.472 0 0 1-.673-2.639Z" fill="#5C5F62"/><path d="m15.084 6.689-.695 1.496a5.475 5.475 0 0 1 1.111 3.315c0 .958-.244 1.857-.673 2.64a.75.75 0 1 0 1.315.72 6.972 6.972 0 0 0 .858-3.36 6.976 6.976 0 0 0-1.916-4.811Z" fill="#5C5F62"/><path fill-rule="evenodd" d="M10 16a2 2 0 0 0 1.485-3.34l2.945-6.344a.75.75 0 1 0-1.36-.632l-2.935 6.32a2 2 0 1 0-.135 3.995Zm0-1.5a.5.5 0 1 0 0-1 .5.5 0 0 0 0 1Z" fill="#5C5F62"/></svg>
